X:61
M:4/4
L:1/4
K:F
F3/2 E/ D E | F G A D | B B A D | G F E ^F | G G G F | E F E !fermata!D | F3/2 B/ B3/2 A/ | G A B F | F B B3/2 A/ | G A B F | !sintro!d d d3/2 D/ | E G (F2- | F E) D2 !eintro!|]
